svg/sort.svg

<svg xmlns="http://www.w3.org/2000/svg" viewBox="0 0 32 32" enable-background="new 0 0 32 32"><path d="M 16 3.59375 L 15.28125 4.28125 L 7.28125 12.28125 L 5.59375 14 L 8 14 L 24 14 L 26.40625 14 L 24.71875 12.28125 L 16.71875 4.28125 L 16 3.59375 z M 16 6.4375 L 21.5625 12 L 10.4375 12 L 16 6.4375 z M 5.59375 18 L 7.28125 19.71875 L 15.28125 27.71875 L 16 28.40625 L 16.71875 27.71875 L 24.71875 19.71875 L 26.40625 18 L 24 18 L 8 18 L 5.59375 18 z M 10.4375 20 L 21.5625 20 L 16 25.5625 L 10.4375 20 z" color="#000" overflow="visible" enable-background="accumulate"/></svg>

<svg xmlns="http://www.w3.org/2000/svg" viewBox="0 0 32 32"><path d="M16 3.594l-.72.687-8 8L5.595 14H26.406l-1.687-1.72-8-8-.72-.686zm0 2.844L21.563 12H10.438L16 6.437zM5.594 18l1.687 1.72 8 8 .72.686.72-.687 8-8L26.405 18H5.594zm4.843 2h11.126L16 25.563 10.437 20z"/></svg>
